X:187
T:Little Driver. JJo8187
%%VWML:JohnsonVol8-2184-p94-0
F:http://www.vwml.org/record/JohnsonVol8/2184/p94
Z:Transcribed by Simon Furey and Lewis Jones
Z:vmp.Simon Wilson 2013 www.village-music-project.org.uk
Z:Dance added by John Chambers 2017
M:6/8
L:1/8
%Q:3/8=120
K:Bb
|:\
TB3 cde | fga bfd | TB3 cde  | dBG cAF |\
TB3 cde | fga bfd | gfg cd=e | Tf3 F3 :|
|:\
Tf3 gfg | cde dcB | Tg3 aga  | bag fed |\
 F3 GAB | cde fga | bfd ecA  | TB3 B,3 :|
W: Foot it 4 and Right and Left half
W:round .| the same back again ..|
W:Cross over and half figure .| Right
W:and Left ..|
W:
T:Jacky Wagtail. JJo8.188
B:J.Johnson Choice Collection Vol 8 1758
Z:vmp.Simon Wilson 2013 www.village-music-project.org.uk
Z:Dance added by John Chambers 2017
M:6/8
L:1/8
%Q:3/8=120
K:D
|:\
d3AFD | BGE EFG | ABA AFD | fdB Bcd |\
efe ecA | BGE EFG | ABA AFD | dAF DFA :|
|:\
d3faf | gbg efg | d3efg | bgb afd |\
gbg faf | ecA Bcd | ABA AFD | dAF DFA :|
W: Foot across and not turn .| cast off one
W:Cu and turn your Partner ..| Lead thro'
W:the Bottom and cast up one Cu .|
W:whole figure thro' the top Cu. ..|
W:
